!!!!SEGMENT: pl-wtm--a-36-279-86_boczkowski-jerzy--czy-pani-ma-w-niedziele-czas-przez-caly-tydzien-nie-mam-czasu.krn
!!!cenid: 19xx:35
!!!COM: Boczkowski, Jerzy
!!!COM-rismID: pe50047498
!!!CDT: 1882-1953
!!!CNT: Polish
!!!OTL: Czy pani ma w niedzielę czas?/Przez cały tydzień nie mam czasu
!!!PDT:
!!!AGN: Secular
!!!YEC: Copyright 2022 Narodowy Instytut Fryderyka Chopina (https://polishscores.org)
!!!YEM: License CC-BY-4.0 (https://creativecommons.org/licenses/by/4.0)
!!!SMS-siglum: PL-Wtm
!!!SMS-shelfmark: A.36.279/86
!!!SMS-variant:
!!!SMS-altvar:
!!!SMS-shelfwork: W
!!!NIFC-rismSourceID: 1001214570
!!!NIFC-rismChildID: 1001214570
!!!NIFC-islandoraID: pl-wtm:96465
!!!URL-pdf-islandora: https://repozytorium.nifc.pl/islandora/object/pl-wtm%3A96465/datastream/PDF/view
!!!URL-scan: https://polish.musicsources.pl/pl/lokalizacje/galeria/druki-muzyczne/21447/2 @EN{Scan on Polish Music Sources Website} @PL{Skany w portalu Dziedzictwo Muzyki Polskiej w otwartym dostępie}
!!!IIIF:
!!!ONB-nifc:
!!!OMD: Vivace.
!!!AIN: 1 piano 1 vox
!!!key:
**kern	**kern	**kern	**text	**text	**text
*part3	*part2	*part1	*part1	*part1	*part1
*staff3	*staff2	*staff1	*staff1	*staff1	*staff1
*I"[Pianoforte]	*	*I"[Voce]	*	*	*
*Ipiano	*	*Ivox	*	*	*
*ICklav	*	*ICvox	*	*	*
*IGacmp	*	*IGsolo	*	*	*
*clefF4	*clefG2	*clefG2	*	*	*
*k[f#]	*k[f#]	*k[f#]	*	*	*
*G:	*G:	*G:	*	*	*
*M2/2	*M2/2	*M2/2	*	*	*
*met(c|)	*met(c|)	*met(c|)	*	*	*
*>[A,B,C,C,C]	*>[A,B,C,C,C]	*>[A,B,C,C,C]	*	*	*
*>A	*>A	*>A	*	*	*
4r	4d/ 4dd	4ryy	.	.	.
=1	=1	=1	=1	=1	=1
1r	4e\ 4ee	1ryy	.	.	.
.	4g\ 4gg	.	.	.	.
.	4b\ 4bb	.	.	.	.
.	4dd\ 4ddd	.	.	.	.
=2	=2	=2	=2	=2	=2
4CC^/ 4C	4.b^\ 4.bb	1ryy	.	.	.
4C\ 4E 4A	.	.	.	.	.
.	8a\ 8aa	.	.	.	.
4AAA/ 4AA	4a\ 4aa	.	.	.	.
4C\ 4E 4A	4dd\ 4ddd	.	.	.	.
=3	=3	=3	=3	=3	=3
4CC#X/ 4C#X	4.b^\ 4.bb	1ryy	.	.	.
4AA/ 4C# 4G	.	.	.	.	.
!	!LO:N:vis=4	!	!	!	!
.	8a\ 8aa	.	.	.	.
4DD/ 4D	4a\ 4aa	.	.	.	.
8D\ 8F# 8c	8dd\ 8ddd	.	.	.	.
8r	8r	.	.	.	.
=4	=4	=4	=4	=4	=4
1r	1r	1ryy	.	.	.
=5!|:	=5!|:	=5!|:	=5!|:	=5!|:	=5!|:
*>B	*>B	*>B	*	*	*
!	!LO:TX:a:t=Shimmy-Tempo.	!	!	!	!
4GG/	4r	1ryy	.	.	.
.	(8qa#X\	.	.	.	.
4G\ 4d	4g\) 4b	.	.	.	.
4GG#X/	4r	.	.	.	.
.	(8qcc#X\	.	.	.	.
4E#X\ 4G#X 4d	4b\) 4dd	.	.	.	.
=6	=6	=6	=6	=6	=6
4AA/	8r	1ryy	.	.	.
.	8dd\L	.	.	.	.
4D\ 4F# 4c	8ff#\	.	.	.	.
.	8ee\J	.	.	.	.
4DD/	8cc\L	.	.	.	.
.	8a\	.	.	.	.
4D\ 4F# 4c	8f#\	.	.	.	.
.	8e\J	.	.	.	.
!!LO:LB:g=original
=7:|!|:	=7:|!|:	=7:|!|:	=7:|!|:	=7:|!|:	=7:|!|:
*>C	*>C	*>C	*	*	*
!LO:TX:b:t=[coda]:rj	!	!LO:TX:a:t=[coda]:rj	!	!	!
4GG^/	8r	8r	.	.	.
*	*	*	*v:1	*v:2	*v:3
.	8d/L	8d/	Przez	Czy	Tak
4D\ 4G 4B	8b/	8b\	ca-	w ki-	py-
.	8a/J	8a/	-ły	-nie	-tam
4BB/	8g/L	8g/	ty-	je-	pa-
.	8f#/	8f#/	-dzień	-stem,	-nie
4D\ 4G 4B	8g/	8g/	nie	czy	od
.	8e/J	8e/	mam	tram-	dzie-
=8	=8	=8	=8	=8	=8
4AA/	8f#^/L	8f#^>/	cza-	-wa-	-się-
.	8e/J	8e/	-su,	-jem	-ciu
4D\ 4F# 4c	2d/	2.d/	by	mknę,	lat,
4DD/	.	.	.	.	.
.	(8qdd#X\	.	.	.	.
4d^\	4cc^\) 4ee	.	.	.	.
=9	=9	=9	=9	=9	=9
4AA^/	8cc^\L	8cc^\	Chwy-	Szu-	A-
.	8b\J	8b\	-tać	-kam	-le
4D\ 4F# 4c	2a/	2.a/	w sieć	dam	cóż!
4DD/	.	.	.	.	.
.	(8qee#X\	.	.	.	.
4d^\	4cc^\) 4ff#	.	.	.	.
!!LO:LB:g=original
=10	=10	=10	=10	=10	=10
*	*	*	*v:1	*v:2	*v:3
4GG/	8gg^\L	8gg^\	pię -	tu	a-
.	8ee\	8ee\	-kną	i	-ni
4D\ 4G 4B	8dd\	2.dd\	płeć.	tam.	rusz!
.	[8gg\J	.	.	.	.
4BB/	8gg\L]	.	.	.	.
.	8ee\	.	.	.	.
4D\ 4G 4B	8dd\	.	.	.	.
.	8b\J	.	.	.	.
=11	=11	=11	=11	=11	=11
4GG^/	8r	8r	.	.	.
.	8d/L	8d/	Pro-	Czy	W nie-
4D\ 4G 4B	8b/	8b\	-te-	we-	-dzie-
.	8a/J	8a/	-sty,	-sół	-lę
4BB/	8g/L	8g/	Lourse,	je-	po-
.	8f#/	8f#/	po-	-stem,	-po-
4D\ 4G 4B	8g/	8g/	-da-	czy	-łu-
.	8e/J	8e/	-tki,	ze	-dniu
=12	=12	=12	=12	=12	=12
4AA/	8f#^/L	8f#^>/	hu-	smu-	a-
.	8g/J	8g/	-mor	-tku	-ku-
4F#\ 4A 4d	2a/	2.a/	zły,	schnę	-rat
4FF#/	.	.	.	.	.
.	(8qcc#X\	.	.	.	.
4A^\	4f#\) 4dd	.	.	.	.
!!LO:LB:g=original
=13	=13	=13	=13	=13	=13
*	*	*	*v:1	*v:2	*v:3
4AA/	8cc#X^\L	8cc#X^\	W ta-	Ni-	Z ka-
.	8b\J	8b\	-kie	-gdy	-żdą
4A\ 4c#X 4g	4a/	4a/	dni	nie	już
4C#X/	8ee^\L	8ee^\	pie-	czu-	in-
.	8dd\J	8dd\	-szczą	-ję	-ny
4A\ 4c# 4g	4cc#\	4cc#\	się	się	ktoś
=14	=14	=14	=14	=14	=14
4D\ 4d	[2f#/ [2dd	[2dd\	kpy	źle!	wpadł!
4AA\ 4A	.	.	.	.	.
8D\L 8d	8f#/] 8dd]	8dd\]	.	.	.
8C\ 8c	8r	8r	.	.	.
8AA\ 8A	4r	4r	.	.	.
8FF#\J 8F#	.	.	.	.	.
=15	=15	=15	=15	=15	=15
4FFn/	8r	8r	.	.	.
.	8fn'\L	8fn/	Lecz,	Bo	Na-
4Fn\ 4A 4e-X	8ee-X'\	8ee-X\	gdy	cho-	-re-
.	8dd'\J	8dd\	w so-	-ciaż	-szcie
4AA/	8cc'\L	8cc\	-bo-	mi	je-
.	8b'\	8b\	-tę	od-	-dna
4F\ 4A 4e-	8cc'\	8cc\	wie-	-mó-	da-
.	8cc#X'\J	8cc#X\	-czór	-wi	-ła
!!LO:PB:g=original
=16	=16	=16	=16	=16	=16
*	*^	*	*	*	*
*	*	*	*	*v:1	*v:2	*v:3
4BB-X/	4dd'/	4r	4dd\	je-	dzie-	zgo-
4Fn\ 4B-X 4d	4dd'/	4fn\	4dd\	-stem	-wcząt	-dy
4D\	8dd/L	4r	2dd\	sam,	sto,	znak
.	8cc/	.	.	.	.	.
4F\ 4B- 4d	8b-X/	4f\	.	.	.	.
.	8a/J	.	.	.	.	.
*	*v	*v	*	*	*	*
=17	=17	=17	=17	=17	=17
4C#X/	8r	8r	.	.	.
!	!LO:TX:b:t=r-a-l-l-e-n-t-a-n-d-o:ext=cd	!LO:TX:a:t=r-a-l-l-e-n-t-a-n-d-o:ext=cd	!	!	!
.	8a'\L	8a/	Mam	Coś	I
4A\ 4c#X 4g	8ffn'\	8ffn\	pro-	za-	ci-
.	8ee'\J	8ee\	-po-	-wsze	-chu-
4AA/	8dd'\L	8dd\	-zy-	znaj-	-teń-
.	8cc#X'\	8cc#X\	-cję	-dę	-ko
4A\ 4c# 4g	8dd'\	8dd\	dla	by	za-
.	8ee'\J	8ee\	sa-	po-	-śpie-
=18	=18	=18	=18	=18	=18
4D\ 4d	4f#/ 4dd	4dd\	-mo-	-wie-	-wa-
4E\ 4e	4g\ 4a#X 4cc#X	4cc#X\	-tnych	-dzieć	-ła
4F#;<\ 4f#	4an;,\ 4ccn	4ccn;,\	dam:	to:	tak:
*	*	*	*v:1.2.	*	*v:3
4r	4d/	4d/	Czy	.	Ja
!!LO:LB:g=original
=19||	=19||	=19||	=19||	=19||	=19||
*	*	*	*v:1.2.	*	*v:3
!	!LO:TX:b:t=a tempo	!	!	!	!
4GG/	4e'/	4e/	pa-	.	wła-
4D\ 4G 4B	4g'/	4g/	-ni	.	-śnie
4DD/	4b'\	4b\	ma	.	mam
4D\ 4G 4B	4dd'\	4dd\	w nie-	.	dla
=20	=20	=20	=20	=20	=20
4FF#^/	4.b^\	4.b^\	-dzie-	.	pa-
4D\ 4F# 4c	.	.	.	.	.
.	8a/	8a/	-lę	.	-na
4DD/	4a/	4a/	czas	.	czas,
4D\ 4F# 4c	4dd\	4dd\	o	.	o
=21	=21	=21	=21	=21	=21
4FF#^/	4.b^\	4.b^\	pią-	.	pią-
4D\ 4F# 4c	.	.	.	.	.
.	8a/	8a/	-tej	.	-tej
4DD/	4a/	4a/	po-	.	po-
4D\ 4F# 4c	4dd\	4dd\	-po-	.	-po-
=22	=22	=22	=22	=22	=22
4GG/	4a/	4a/	-łu-	.	-łu-
4D\ 4G 4B	2g/	2g/	-dniu?	.	-dniu,
4BB/	.	.	.	.	.
4D\ 4G 4B	4d'/	4d/	Ja	.	I
=23	=23	=23	=23	=23	=23
4GG/	4e'/	4e/	coś	.	coś
4D\ 4G 4B	4g'/	4g/	dla	.	dla
4DD/	4b'\	4b\	cie-	.	cie-
4D\ 4G 4B	4dd'\	4dd\	-bie	.	-bie
!!LO:LB:g=original
=24	=24	=24	=24	=24	=24
*	*	*	*v:1.2.	*	*v:3
4FF#^/	4.dd^\	4.dd^\	mam	.	mam
4F#\ 4A#X 4e	.	.	.	.	.
.	8cc#X\	8cc#X\	w sam	.	w sam
4AA#X/	4cc#\	4cc#\	raz,	.	raz,
4F#\ 4A# 4e	4ff#\	4ff#\	Czy	.	Czy
=25	=25	=25	=25	=25	=25
4FF#^/	4.dd^\	4.dd^\	w li-	.	w li-
4F#\ 4A#X 4e	.	.	.	.	.
.	8cc#X\	8cc#X\	-pcu,	.	-pcu,
4AA#X/	4cc#\	4cc#\	czy	.	czy
4F#\ 4A# 4e	4ff#\	4ff#\	też	.	też
=26	=26	=26	=26	=26	=26
4BB/	4ee\	4ee\	w gru-	.	w gru-
4F#\ 4B 4d	2dd\	2dd\	-dniu!	.	-dniu!
4D\	.	.	.	.	.
4F#\ 4B 4d	4dd'\	4dd\	Przyjdź	.	Przyjdź
=27	=27	=27	=27	=27	=27
4C/	4dd'\	4dd\	do	.	do
4E\ 4A	4cc'\	4cc\	mnie	.	mnie
4AA/	4dd'\	4dd\	na	.	na
4C\ 4E 4A	4cc'\	4cc\	her-	.	her-
=28	=28	=28	=28	=28	=28
4D^\	4.cc^\	4.cc^\	-ba-	.	-ba-
4G\ 4B	.	.	.	.	.
.	8b\	8b\	-tkę	.	-tkę
4BB/	4b\	4b\	i,	.	i,
4D\ 4G 4B	4dd\	4dd\	Zam-	.	Zam-
!!LO:LB:g=original
=29	=29	=29	=29	=29	=29
*	*	*	*v:1.2.	*	*v:3
4AA^/	4.dd^\	4.dd^\	-kną-	.	-kną-
4D\ 4F# 4c	.	.	.	.	.
.	8cc\	8cc\	-wszy	.	-wszy
4DD/	4cc\	4cc\	drzwi,	.	drzwi,
4D\ 4F# 4c	4ee\	4ee\	Daj	.	Daj
=30	=30	=30	=30	=30	=30
4GG^/	4.ee^\	4.ee^\	u-	.	u-
4D\ 4G 4B	.	.	.	.	.
.	8dd\	8dd\	-sta	.	-sta
4BB/	4dd\	4dd\	mi!	.	mi!
4D\ 4G 4B	4dd\	4dd\	Czy	.	Aż
=31	=31	=31	=31	=31	=31
4CC/ 4C	4ff#'\	4ff#\	pa-	.	wre-
4C\ 4E 4A	4ee'\	4ee\	-ni	.	-szcie
4CC#X/ 4C#X	4ff#'\	4ff#\	ma	.	po-
4C#\ 4E 4G 4B-X	4ee'\	4ee\	w nie-	.	-nie-
=32	=32	=32	=32	=32	=32
4DD^/ 4D	4.ee^\	4.ee^\	-dzie-	.	-dzia-
4D\ 4G 4B	.	.	.	.	.
.	8dd\	8dd\	-lę	.	-łek
4BBB/ 4BB	4dd\	4dd\	czas,	.	nas
4G\ 4B	4d/	4d/	o	.	roz-
=33	=33	=33	=33	=33	=33
4r	4g'/	4g/	pią-	.	-łą-
4C\ 4E 4A	4b'\	4b\	-tej	.	-czy
4r	4dd'\	4dd\	po-	.	po-
!LO:TX:b:t=Dal Segno [coda]	!	!	!	!	!
4AA\ 4C#X 4G	4b'\	4b\	-po-	.	-po-
=34	=34	=34	=34	=34	=34
4r	2a/	2a/	-łu-	.	-łu-
4D\ 4F# 4c	.	.	.	.	.
4GG\ 4G	4B/ 4g	4g/	-dniu!	.	-dniu.
4r	4r	4r	.	.	.
==	==	==	==	==	==
*-	*-	*-	*-	*-	*-
!!!system-decoration: s1{(s2,s3)}
!!!RDF**kern: < = below
!!!RDF**kern: > = above
!!!ENC: Berenika Jozajtis
!!!END: 2023-08-26
!!!ENC: Marta Chmielewska
!!!END: 2023-09-23
